modules/zondicons/icons/announcement.svg

<?xml version="1.0" encoding="UTF-8" standalone="no"?>
<svg width="20px" height="20px" viewBox="0 0 20 20" version="1.1" xmlns="http://www.w3.org/2000/svg" xmlns:xlink="http://www.w3.org/1999/xlink">
    <!-- Generator: Sketch 3.7.2 (28276) - http://www.bohemiancoding.com/sketch -->
    <title>announcement</title>
    <desc>Created with Sketch.</desc>
    <defs></defs>
    <g id="Page-1" stroke="none" stroke-width="1" fill="none" fill-rule="evenodd">
        <g id="announcement" fill="#000000">
            <path d="M3,6 L3,5.99810135 C3,4.89458045 3.89706013,4 5.00585866,4 L13,4 L17,0 L19,0 L19,16 L17,16 L13,12 L5.00585866,12 C3.89805351,12 3,11.1132936 3,10.0018986 L3,10 L1,10 L1,6 L3,6 Z M11,15 L13,15 L13,13 L5,13 L5,15 L6.33333333,15 L8,20 L11,20 L11,15 Z" id="Combined-Shape"></path>
        </g>
    </g>
</svg>

<svg width="20" height="20" viewBox="0 0 20 20" xmlns="http://www.w3.org/2000/svg"><path d="M3 6v-.002C3 4.895 3.897 4 5.006 4H13l4-4h2v16h-2l-4-4H5.006A1.997 1.997 0 0 1 3 10.002V10H1V6h2zm8 9h2v-2H5v2h1.333L8 20h3v-5z" fill="#000" fill-rule="evenodd"/></svg>
